static/icons/icon.svg

<svg width="128" height="128" viewBox="0 0 128 128" fill="none" xmlns="http://www.w3.org/2000/svg">
<g clip-path="url(#clip0)">
<path d="M106.345 7.793C117.071 16.093 120.79 32.61 123.904 49.293C127.018 65.976 129.44 82.742 123.212 96.188C116.898 109.634 101.933 119.76 85.8444 124.325C69.6689 128.89 52.3689 127.977 37.7504 122.001C23.0454 116.025 11.0219 105.069 5.39941 92.204C-0.136585 79.422 0.814914 64.731 3.92891 50.87C6.95641 37.009 12.2329 23.978 22.0939 15.512C31.8684 7.046 46.1409 3.145 62.1434 1.236C78.0594 -0.590004 95.7054 -0.507003 106.345 7.793Z" fill="#FFCC00"/>
<g clip-path="url(#clip1)">
<path d="M67.1544 21.2414C66.1047 21.1639 65.0525 21.1251 64 21.125V15C65.2038 15.0006 66.4071 15.0455 67.6076 15.1348L67.1544 21.2414ZM79.4289 23.9976C77.4655 23.24 75.449 22.6279 73.3958 22.1663L74.7371 16.1883C77.083 16.715 79.3921 17.4133 81.6339 18.283L79.4289 23.9976ZM87.8201 28.3464C86.9444 27.7624 86.0475 27.2107 85.1313 26.6926L88.1509 21.3639C90.2451 22.5505 92.2492 23.8894 94.1473 25.3696L90.3804 30.2023C89.55 29.5544 88.696 28.9374 87.8201 28.3525V28.3464ZM99.0534 39.3101C97.8418 37.5889 96.505 35.9593 95.0538 34.4346L99.4883 30.2084C101.142 31.954 102.673 33.8221 104.064 35.7821L99.0534 39.3101ZM103.61 47.5911C103.208 46.6201 102.771 45.6639 102.3 44.7246L107.769 41.9684C108.851 44.1188 109.772 46.3462 110.526 48.6324L104.707 50.5495C104.378 49.5503 104.012 48.5635 103.61 47.5911ZM106.857 62.9465C106.807 60.8416 106.602 58.7432 106.244 56.6684L112.277 55.6271C112.688 57.9914 112.927 60.3924 112.988 62.7934L106.863 62.9465H106.857ZM106.054 72.3668C106.256 71.3255 106.422 70.2904 106.55 69.243L112.632 69.9964C112.338 72.3861 111.867 74.7507 111.224 77.0708L105.319 75.4354C105.601 74.4248 105.846 73.4019 106.054 72.3668ZM100.223 86.9381C101.35 85.1619 102.342 83.2999 103.2 81.3766L108.798 83.8573C107.818 86.0623 106.685 88.1815 105.399 90.215L100.223 86.9381ZM94.3188 94.3188C95.066 93.5715 95.7826 92.7998 96.4625 92.0035L101.105 96.0031C100.319 96.9147 99.4998 97.7973 98.6491 98.6491L94.3188 94.3188Z" fill="black"/>
<path d="M64.0013 21.125C56.9507 21.1255 50.009 22.8648 43.7911 26.1888C37.5732 29.5128 32.271 34.3189 28.3542 40.1814C24.4373 46.0439 22.0267 52.7819 21.3358 59.7986C20.6449 66.8153 21.695 73.8941 24.3932 80.408C27.0915 86.9219 31.3545 92.6698 36.8046 97.1427C42.2548 101.616 48.724 104.675 55.6391 106.051C62.5542 107.427 69.7018 107.076 76.4489 105.029C83.196 102.983 89.3343 99.304 94.3201 94.3187L98.6504 98.6491C92.9526 104.35 85.9365 108.558 78.2238 110.899C70.5111 113.24 62.34 113.643 54.4345 112.072C46.5289 110.501 39.1329 107.004 32.9019 101.891C26.6709 96.7777 21.7972 90.2069 18.7127 82.7602C15.6281 75.3135 14.4279 67.221 15.2185 59.1996C16.009 51.1783 18.7659 43.4757 23.2448 36.7745C27.7236 30.0732 33.7863 24.5802 40.8955 20.782C48.0048 16.9839 55.9411 14.9979 64.0013 15V21.125Z" fill="black"/>
<path d="M60.9375 33.375C61.7497 33.375 62.5287 33.6977 63.103 34.272C63.6773 34.8463 64 35.6253 64 36.4375V68.3487L83.894 79.7167C84.5787 80.1298 85.0747 80.7943 85.276 81.5683C85.4773 82.3422 85.3678 83.1642 84.9711 83.8585C84.5743 84.5528 83.9217 85.0644 83.1528 85.2839C82.3838 85.5034 81.5595 85.4135 80.856 85.0332L59.4185 72.7832C58.9498 72.5155 58.5601 72.1286 58.2891 71.6618C58.018 71.195 57.8752 70.6648 57.875 70.125V36.4375C57.875 35.6253 58.1977 34.8463 58.772 34.272C59.3463 33.6977 60.1253 33.375 60.9375 33.375Z" fill="black"/>
</g>
</g>
<defs>
<clipPath id="clip0">
<rect width="128" height="128" fill="white"/>
</clipPath>
<clipPath id="clip1">
<rect width="98" height="98" fill="white" transform="translate(15 15)"/>
</clipPath>
</defs>
</svg>

<?xml version="1.0" encoding="utf-8"?>
<!-- Generator: Adobe Illustrator 25.4.1, SVG Export Plug-In . SVG Version: 6.00 Build 0)  -->
<svg version="1.1" id="Layer_1" xmlns="http://www.w3.org/2000/svg" xmlns:xlink="http://www.w3.org/1999/xlink" x="0px" y="0px"
	 viewBox="0 0 128 128" style="enable-background:new 0 0 128 128;" xml:space="preserve">
<style type="text/css">
	.st0{clip-path:url(#SVGID_00000100368651722172890680000013343838140891992726_);}
	.st1{fill:#FFCC00;}
	.st2{clip-path:url(#SVGID_00000065796709866890714500000016491337309144582805_);}
</style>
<g>
	<defs>
		<rect id="SVGID_1_" y="0" width="128" height="128"/>
	</defs>
	<clipPath id="SVGID_00000080923521514800753040000016863892819858233523_">
		<use xlink:href="#SVGID_1_"  style="overflow:visible;"/>
	</clipPath>
	<g style="clip-path:url(#SVGID_00000080923521514800753040000016863892819858233523_);">
		<path class="st1" d="M106.3,7.8c10.7,8.3,14.4,24.8,17.6,41.5s5.5,33.4-0.7,46.9c-6.3,13.4-21.3,23.6-37.4,28.1
			c-16.2,4.6-33.5,3.7-48.1-2.3C23,116,11,105.1,5.4,92.2c-5.5-12.8-4.6-27.5-1.5-41.3C7,37,12.2,24,22.1,15.5
			c9.8-8.5,24-12.4,40-14.3C78.1-0.6,95.7-0.5,106.3,7.8z"/>
		<g>
			<defs>
				<rect id="SVGID_00000019644473890832692800000014566226667430977454_" x="15" y="15" width="98" height="98"/>
			</defs>
			<clipPath id="SVGID_00000121958200162467140540000017009706552769933443_">
				<use xlink:href="#SVGID_00000019644473890832692800000014566226667430977454_"  style="overflow:visible;"/>
			</clipPath>
			<g style="clip-path:url(#SVGID_00000121958200162467140540000017009706552769933443_);">
				<path d="M67.2,21.2c-1-0.1-2.1-0.1-3.2-0.1V15c1.2,0,2.4,0,3.6,0.1L67.2,21.2z M79.4,24c-2-0.8-4-1.4-6-1.8l1.3-6
					c2.3,0.5,4.7,1.2,6.9,2.1L79.4,24z M87.8,28.3c-0.9-0.6-1.8-1.1-2.7-1.7l3-5.3c2.1,1.2,4.1,2.5,6,4l-3.8,4.8
					C89.6,29.6,88.7,28.9,87.8,28.3L87.8,28.3z M99.1,39.3c-1.2-1.7-2.5-3.4-4-4.9l4.4-4.2c1.7,1.7,3.2,3.6,4.6,5.6L99.1,39.3z
					 M103.6,47.6c-0.4-1-0.8-1.9-1.3-2.9l5.5-2.8c1.1,2.2,2,4.4,2.8,6.7l-5.8,1.9C104.4,49.6,104,48.6,103.6,47.6z M106.9,62.9
					c-0.1-2.1-0.3-4.2-0.6-6.3l6-1c0.4,2.4,0.7,4.8,0.7,7.2L106.9,62.9L106.9,62.9z M106.1,72.4c0.2-1,0.4-2.1,0.5-3.1l6.1,0.8
					c-0.3,2.4-0.8,4.8-1.4,7.1l-5.9-1.6C105.6,74.4,105.8,73.4,106.1,72.4z M100.2,86.9c1.1-1.8,2.1-3.6,3-5.6l5.6,2.5
					c-1,2.2-2.1,4.3-3.4,6.4L100.2,86.9z M94.3,94.3c0.7-0.7,1.5-1.5,2.1-2.3l4.6,4c-0.8,0.9-1.6,1.8-2.5,2.6L94.3,94.3z"/>
				<path d="M64,21.1c-7.1,0-14,1.7-20.2,5.1s-11.5,8.1-15.4,14c-3.9,5.9-6.3,12.6-7,19.6c-0.7,7,0.4,14.1,3.1,20.6
					c2.7,6.5,7,12.3,12.4,16.7c5.5,4.5,11.9,7.5,18.8,8.9s14.1,1,20.8-1c6.7-2,12.9-5.7,17.9-10.7l4.3,4.3
					c-5.7,5.7-12.7,9.9-20.4,12.2c-7.7,2.3-15.9,2.7-23.8,1.2c-7.9-1.6-15.3-5.1-21.5-10.2c-6.2-5.1-11.1-11.7-14.2-19.1
					c-3.1-7.4-4.3-15.5-3.5-23.6c0.8-8,3.5-15.7,8-22.4c4.5-6.7,10.5-12.2,17.7-16C48,17,55.9,15,64,15V21.1z"/>
				<path d="M60.9,33.4c0.8,0,1.6,0.3,2.2,0.9s0.9,1.4,0.9,2.2v31.9l19.9,11.4c0.7,0.4,1.2,1.1,1.4,1.9c0.2,0.8,0.1,1.6-0.3,2.3
					c-0.4,0.7-1,1.2-1.8,1.4c-0.8,0.2-1.6,0.1-2.3-0.3L59.4,72.8c-0.5-0.3-0.9-0.7-1.1-1.1c-0.3-0.5-0.4-1-0.4-1.5V36.4
					c0-0.8,0.3-1.6,0.9-2.2S60.1,33.4,60.9,33.4z"/>
			</g>
		</g>
	</g>
</g>
</svg>
